!!!COM: Palestrina, Giovanni Perluigi da
!!!OPR: O admirabile commercium
!!!OTL: Agnus I
**kern	**kern	**kern	**kern	**kern
*Ibass	*Itenor	*Itenor	*Icalto	*Icant
!Bassus	!Tenor 2	!Tenor 1	!Altus	!Cantus
*clefF4	*clefGv2	*clefGv2	*clefG2	*clefG2
*k[]	*k[]	*k[]	*k[]	*k[]
*G:mix	*G:mix	*G:mix	*G:mix	*G:mix
*M4/2	*M4/2	*M4/2	*M4/2	*M4/2
=1	=1	=1	=1	=1
0r	0r	0r	1d	0r
.	.	.	[1g	.
=2	=2	=2	=2	=2
0r	1d	0r	2g]	[0dd
.	.	.	2f#	.
.	[1g	.	2g	.
.	.	.	2b	.
=3	=3	=3	=3	=3
0r	2g]	1d	2.a	0dd]
.	2f#	.	.	.
.	.	.	8g	.
.	.	.	8a	.
.	2g	[1g	1b	.
.	2G	.	.	.
=4	=4	=4	=4	=4
1D	0d	2g]	1a	0dd
.	.	2f#	.	.
[1G	.	2g	1r	.
.	.	2b	.	.
=5	=5	=5	=5	=5
2G]	2r	1a	2r	0dd
2F#	2A	.	1d	.
2G	2B	1g	.	.
2B	[2d	.	2d	.
=6	=6	=6	=6	=6
0A	2d]	2r	1a	0ee
.	4c#	1e	.	.
.	4B	.	.	.
.	1c#	.	1a	.
.	.	[2a	.	.
=7	=7	=7	=7	=7
2D	1d	4a]	2r	1dd
.	.	4g	.	.
2d	.	4f	1d	.
.	.	4e	.	.
2B	1r	2d	.	1g
2c	.	2e	[2g	.
=8	=8	=8	=8	=8
1A	1r	1c	2g]	1.cc
.	.	.	2f#	.
1G	2r	1d	2g	.
.	[2G	.	2d	2b
=9	=9	=9	=9	=9
1C	2G]	1r	2.e	2cc
.	1c	.	.	2ee
.	.	.	4f	.
1r	.	1G	[1g	1dd
.	2B	.	.	.
=10	=10	=10	=10	=10
1C	2.e	1.c	2g]	[0cc
.	.	.	2e	.
.	4d	.	.	.
[1F	4c	.	2.a	.
.	4A	.	.	.
.	[2a	2A	.	.
.	.	.	4g	.
=11	=11	=11	=11	=11
2F]	2a]	2c	2f	1cc]
2E	2g	2e	2g	.
2F	4f	4d	2a	1r
.	4e	4c	.	.
2A	4d	[2c	2f	.
.	4c	.	.	.
=12	=12	=12	=12	=12
1G	1d	2c]	1g	1r
.	.	2B	.	.
1C	1e	2c	2r	2r
.	.	2c	[2g	2ee
=13	=13	=13	=13	=13
0r	0r	1c	2g]	1ee
.	.	.	2a	.
.	.	2g	2b	2dd
.	.	2e	2g	2ee
=14	=14	=14	=14	=14
1r	1r	2f	2a	2cc
.	.	2d	2b	2dd
2r	2r	1c	[1cc	4ee
.	.	.	.	4ff
2C	2e	.	.	4gg
.	.	.	.	4ff
=15	=15	=15	=15	=15
1C	1e	2g	1cc]	4ee
.	.	.	.	4dd
.	.	2G	.	2cc
2G	2d	4G	1b	2dd
.	.	4A	.	.
2E	2e	4B	.	2g
.	.	4G	.	.
=16	=16	=16	=16	=16
2F	2c	2A	0r	1r
2D	2d	2B	.	.
1C	1e	1c	.	2r
.	.	.	.	2g
=17	=17	=17	=17	=17
1G	2d	2B	2r	1g
.	2G	1d	2b	.
1r	1G	.	1b	[1dd
.	.	2e	.	.
=18	=18	=18	=18	=18
0r	2d	2f	2a	2dd]
.	2B	2d	2b	2dd
.	2c	2e	2g	2cc
.	2A	2f	2a	2cc
=19	=19	=19	=19	=19
0r	1G	4g	4b	4ee
.	.	4f	4a	4dd
.	.	4e	2.g	4gg
.	.	4d	.	4ff
.	1A	1c	.	4ee
.	.	.	8f#	4dd
.	.	.	8e	.
.	.	.	2f#	[2cc
=20	=20	=20	=20	=20
1r	1G	1d	1g	2cc]
.	.	.	.	2b
2r	[1c	2e	2r	1cc
2F	.	2f	2a	.
=21	=21	=21	=21	=21
1F	2c]	1f	1a	0r
.	2d	.	.	.
2c	2e	2g	2g	.
2A	2c	2a	[2f	.
=22	=22	=22	=22	=22
2B-	2d	2f	2f]	0r
2G	2e	2g	2e	.
[1F	2.f	2.a	2d	.
.	.	.	[2c	.
.	4g	4g	.	.
=23	=23	=23	=23	=23
1F]	1a	2f	2c]	0r
.	.	2e	1cc	.
[1G	[1g	[1d	.	.
.	.	.	4b	.
.	.	.	4a	.
=24	=24	=24	=24	=24
1G]	1g]	1d]	2b	2r
.	.	.	2b	2.gg
[1c	2r	[1e	2r	.
.	.	.	.	4ff
.	[2g	.	[2cc	4ee
.	.	.	.	4dd
=25	=25	=25	=25	=25
2c]	2g]	2e]	2cc]	2cc
2G	2g	2d	2b	2dd
1G	2.g	1d	1b	2dd
.	.	.	.	2g
.	4f	.	.	.
=26	=26	=26	=26	=26
0A	4e	2c	1a	2.cc
.	4d	.	.	.
.	2.e	4A	.	.
.	.	4B	.	4dd
.	.	4c	2.e	1ee
.	4d	4d	.	.
.	2c	[2e	.	.
.	.	.	4f	.
=27	=27	=27	=27	=27
2.E	2B	4e]	0g	1ee
.	.	4d	.	.
.	2e	1c	.	.
4F	.	.	.	.
1G	2.d	.	.	1r
.	.	2B	.	.
.	4e	.	.	.
=28	=28	=28	=28	=28
0F	1f	1c	0a	2r
.	.	.	.	1gg
.	2r	2r	.	.
.	[2a	[2f	.	2cc
=29	=29	=29	=29	=29
0r	2a]	2f]	2r	2.cc
.	2g	2c	1cc	.
.	.	.	.	4dd
.	1g	1c	.	4ee
.	.	.	.	4ff
.	.	.	2cc	[2ee
=30	=30	=30	=30	=30
0r	1f	1d	1a	4ee]
.	.	.	.	4dd
.	.	.	.	1dd
.	1e	2.A	2a	.
.	.	.	[2a	2cc
.	.	4B	.	.
=31	=31	=31	=31	=31
0r	1.e	2.c	4a]	2.ee
.	.	.	4g	.
.	.	.	1g	.
.	.	4B	.	4dd
.	.	1A	.	1cc
.	4d	.	2f#	.
.	4c	.	.	.
=32	=32	=32	=32	=32
2r	2d	1G	2g	2.b
1G	1B	.	1g	.
.	.	.	.	4cc
.	.	2r	.	[1dd
2D	2A	[2d	2f	.
=33	=33	=33	=33	=33
1D	1A	4d]	1f	1dd]
.	.	4d	.	.
.	.	2d	.	.
1E	2G	2B	1e	1r
.	[2g	4G	.	.
.	.	4A	.	.
=34	=34	=34	=34	=34
1BB	2g]	4B	1d	1r
.	.	4c	.	.
.	2f	1d	.	.
1C	2.e	.	[1g	2r
.	.	[2c	.	[2gg
.	8d	.	.	.
.	8c	.	.	.
=35	=35	=35	=35	=35
0G	0d	2c]	0g]	2gg]
.	.	4B	.	2dd
.	.	4A	.	.
.	.	1B	.	1dd
=36	=36	=36	=36	=36
2C	1c	2c	2e	2.ee
1c	.	1e	1cc	.
.	.	.	.	4dd
.	2.g	.	.	2cc
2G	.	2d	2b	[2dd
.	4g	.	.	.
=37	=37	=37	=37	=37
1G	1g	1d	1b	4dd]
.	.	.	.	4cc
.	.	.	.	4dd
.	.	.	.	4b
1A	2e	2.c	1a	4cc
.	.	.	.	4dd
.	4c	.	.	[2ee
.	4d	8B	.	.
.	.	8A	.	.
=38	=38	=38	=38	=38
2.E	4e	2B	[0g	4ee]
.	4f	.	.	4dd
.	2.g	2e	.	1cc
4F	.	.	.	.
1G	.	1d	.	.
.	4f	.	.	.
.	2d	.	.	2b
=39	=39	=39	=39	=39
0C	2.e	2.c	0g]	0cc
.	4d	4d	.	.
.	1c	1e	.	.
=40	=40	=40	=40	=40
0G	0B	0d	0g	0dd
==	==	==	==	==
*-	*-	*-	*-	*-
!!!CDT: 1525/^1526/-1594/2/2
!!!OCY: Italia
!!!AGN: Mass (Parody)
!!!AST: renaissance, vocal
!!!ASW: Motet 1569 (Palestrina)
!!!PWK: Masses, Book 8
!!!RNB: Cadence finals: C,D
!!!YOR: Le Opere Complete, v. 24, p. 52
!!!YOO: Rome, Italy: Fratelli Scalera
!!!END: 1992//
!!!EED: John Miller
!!!YEC: Copyright 2000, John Miller
!!!YEN: United States of America
!!!YEM: Rights to all derivative electronic formats reserved.
!!!YEM: Refer to licensing agreement for further details.
!!!YEM: This file must be accompanied by the licensing agreement.
!!!YEM: A copy of the licensing agreement may be found at http://www.music-cog.ohio-state.edu/HumdrumDatabases/Palestrina/license.txt
!!!EMD: converted to Humdrum by Bret Aarden
